X: 1
T: \^aamonn Coyne's
M: 4/4
L: 1/8
R: reel
S: Aogan Lynch
K: Gmaj
BcdB GABG|AD (3DDD dDcD|BcdB GABG|ADFA G3A:|
|:BGBd gfed|~^c3e agfe|fAaf defd|eA^ce d3f|
gfed (3efg a2-|agfe dcBA|B2dB GABG|ADFA G3A:|
